FINK
CUT[ES BLIES EIN JAEGER]
REG[Europa, Mitteleuropa, Deutschland]
KEY[F0661A 16  A 2/4]
MEL[-5_  1_1_112_  3_5_1_
    2_  3_5_1_
    1_  222221-71  21-7-6-5_0_
    1_1_1_3_  2_2_2_.
    2  32345_1_  322_1_ //] >>
FCT[Staende -, Jaeger - Lied, Liebe, Tod]
